!!!SOCIAL_FUNCTION:	moccasin game songs
!!!PDT:	1909
!!!OTL: No_143.krn
!!!REG: Great_Lakes
!!!LANG: Non-Tone
!!!LING_GROUP: Algonquin
**kern	**kern
*staff2	*staff1
=1-	=1-
*clefF4	*clefF4
*k[b-e-a-d-g-]	*k[b-e-a-d-g-]
*M2/4	*M2/4
16GG-/LK	4.a-\
8GG-^/J	.
16r	.
16GG-/LK	.
8GG-^/J	.
.	8f\
16r	.
=2||	=2||
*M3/4	*M3/4
16GG-/LK	4a-\
8GG-^/J	.
16r	.
16GG-/LK	4f\
8GG-^/J	.
16r	.
16GG-/LK	8.d-\L
8GG-^/J	.
16r	16d-\Jk
=3	=3
2.r	2.d-\
=4||	=4||
*M2/4	*M2/4
2r	2f\
=5	=5
2r	4d-\
.	4B-\
=6	=6
.	d-q/
2r	4d-\
.	8.A-\L
.	16A-\Jk
=7||	=7||
*M3/4	*M3/4
2.r	2.A-\
=8	=8
.	A-q/
2.r	2.A-\
=9||	=9||
*M2/4	*M2/4
.	A--q/
2r	2B--\
=10	=10
2r	4A-\
.	4F\
=11||	=11||
*M3/4	*M3/4
.	A-q/
2.r	4A-\
.	4F\
.	8.D-\L
.	16D-\Jk
=12	=12
2.r	[2.D-\
=13||	=13||
*M2/4	*M2/4
2r	2D-\]
==	==
*-	*-
